svgs/duotone/vector-circle.svg

<svg xmlns="http://www.w3.org/2000/svg" viewBox="0 0 512 512"><!-- Font Awesome Pro 6.0.0-alpha2 by @fontawesome - https://fontawesome.com License - https://fontawesome.com/license (Commercial License) --><defs><style>.fa-secondary{opacity:.4}</style></defs><path d="M107.973 317.504C104.166 319.102 99.99 320 95.602 320H41C62.51 392.215 119.387 449.092 191.602 470.602V416C191.602 411.611 192.502 407.436 194.1 403.629C155.281 387.395 124.205 356.324 107.973 317.504ZM403.23 194.496C407.039 192.896 411.213 192 415.602 192H470.203C448.695 119.787 391.814 62.906 319.602 41.398V96C319.602 100.389 318.703 104.564 317.105 108.371C355.926 124.604 386.998 155.678 403.23 194.496ZM191.602 41.398C119.387 62.906 62.51 119.787 41 192H95.602C99.99 192 104.166 192.898 107.973 194.496C124.205 155.676 155.281 124.605 194.1 108.371C192.502 104.564 191.602 100.389 191.602 96V41.398ZM403.23 317.504C386.998 356.322 355.926 387.396 317.105 403.629C318.703 407.436 319.602 411.611 319.602 416V470.602C391.814 449.092 448.695 392.215 470.203 320H415.602C411.213 320 407.039 319.104 403.23 317.504Z" class="fa-secondary"/><path d="M96 192H32C14.328 192 0 206.326 0 224V288C0 305.674 14.328 320 32 320H96C113.674 320 128 305.674 128 288V224C128 206.326 113.674 192 96 192ZM80 272H48V240H80V272ZM288 384H224C206.328 384 192 398.326 192 416V480C192 497.674 206.328 512 224 512H288C305.674 512 320 497.674 320 480V416C320 398.326 305.674 384 288 384ZM272 464H240V432H272V464ZM288 0H224C206.328 0 192 14.326 192 32V96C192 113.674 206.328 128 224 128H288C305.674 128 320 113.674 320 96V32C320 14.326 305.674 0 288 0ZM272 80H240V48H272V80ZM480 192H416C398.328 192 384 206.326 384 224V288C384 305.674 398.328 320 416 320H480C497.674 320 512 305.674 512 288V224C512 206.326 497.674 192 480 192ZM464 272H432V240H464V272Z" class="fa-primary"/></svg>

<svg xmlns="http://www.w3.org/2000/svg" viewBox="0 0 512 512"><!--! Font Awesome Pro 6.0.0-alpha3 by @fontawesome - https://fontawesome.com License - https://fontawesome.com/license (Commercial License) --><defs><style>.fa-secondary{opacity:.4}</style></defs><path class="fa-primary" d="M96 192H32C14.33 192 0 206.3 0 224v64c0 17.67 14.33 32 32 32h64c17.67 0 32-14.33 32-32V224C128 206.3 113.7 192 96 192zM80 272h-32v-32h32V272zM288 384H224c-17.67 0-32 14.33-32 32v64c0 17.67 14.33 32 32 32h64c17.67 0 32-14.33 32-32v-64C320 398.3 305.7 384 288 384zM272 464h-32v-32h32V464zM288 0H224C206.3 0 192 14.33 192 32v64c0 17.67 14.33 32 32 32h64c17.67 0 32-14.33 32-32V32C320 14.33 305.7 0 288 0zM272 80h-32v-32h32V80zM480 192h-64c-17.67 0-32 14.33-32 32v64c0 17.67 14.33 32 32 32h64c17.67 0 32-14.33 32-32V224C512 206.3 497.7 192 480 192zM464 272h-32v-32h32V272z"/><path class="fa-secondary" d="M108.4 317.5C104.6 319.1 100.4 320 96 320H41.4C62.91 392.2 119.8 449.1 192 470.6V416c0-4.389 .9004-8.564 2.498-12.37C155.7 387.4 124.6 356.3 108.4 317.5zM403.6 194.5C407.4 192.9 411.6 192 416 192h54.6C449.1 119.8 392.2 62.91 320 41.4V96c0 4.389-.8984 8.564-2.496 12.37C356.3 124.6 387.4 155.7 403.6 194.5zM192 41.4C119.8 62.91 62.91 119.8 41.4 192H96c4.389 0 8.564 .8984 12.37 2.496c16.23-38.82 47.31-69.89 86.13-86.13C192.9 104.6 192 100.4 192 96V41.4zM403.6 317.5c-16.23 38.82-47.3 69.89-86.13 86.13C319.1 407.4 320 411.6 320 416v54.6C392.2 449.1 449.1 392.2 470.6 320H416C411.6 320 407.4 319.1 403.6 317.5z"/></svg>
